X: 1
T: Liffey Banks, The
M: 4/4
L: 1/8
R: reel
K: Gmaj
|:G2 GF GBdB|~c3e g2 dc|(3BdB GB AEGE|DEGB A~E3|
|GEDE GBdB|~c3e g2 dc|(3BdB GB AEGE|1 DEGB A2 GF:|2 DEGB A2 G2||
|~g3e (3ded Bd|gabg aged|~g3e (3ded Bd|gabg a2 gf|
|~g3e (3ded Bd|gabg agef|gabg efge|dedc BcdB|
